X: 39971
T: Three Around Three
R: barndance
M: 4/4
K: Gmajor
|:Bc|d2 BA G2 G2|A2 BA G2 D2|EDEF G2 AB|c2 B2 B/c/B A2|
d2 BA G2 GG|A2 BA G2 D2|EDEF GcAc|B/c/B A2 G2:|
|:Bc|d2 ef gfed|e2 e2 efge|d2 B2 B2 AG|FGAB A2- A/A/B/c/|
d2 ef gfed|e2 e2 e2 d2|ef g2 fgaf|g2 G2 g2:|

